src/images/facebook.svg

<svg width="40" height="41" viewBox="0 0 40 41" fill="none" xmlns="http://www.w3.org/2000/svg">
<rect y="0.523926" width="40" height="40" rx="5" fill="#FFCC29"/>
<path d="M23.8984 22.2739H20.9688V31.0239H17.0625V22.2739H13.8594V18.6802H17.0625V15.9067C17.0625 12.7817 18.9375 11.0239 21.7891 11.0239C23.1562 11.0239 24.6016 11.2974 24.6016 11.2974V14.3833H23C21.4375 14.3833 20.9688 15.3208 20.9688 16.3364V18.6802H24.4453L23.8984 22.2739Z" fill="#C10023"/>
</svg>

<svg xmlns="http://www.w3.org/2000/svg" width="40" height="41" fill="none"><rect width="40" height="40" y=".524" fill="#FFCC29" rx="5"/><path fill="#C10023" d="M23.898 22.274h-2.93v8.75h-3.905v-8.75h-3.204V18.68h3.204v-2.773c0-3.125 1.875-4.883 4.726-4.883 1.367 0 2.813.273 2.813.273v3.086H23c-1.562 0-2.031.938-2.031 1.953v2.344h3.476z"/></svg>
